X: 1
T: Bonnie Lassie
R: strathspey
Z: John Chambers <jc:trillian.mit.edu>
N: Highland Whisky version
M: C
L: 1/8
K: F
c \
| "F"a>g f>e "Bb"e<d d<f | "F"c<A "(G7)"G>F "C7"G2- G>c \
|  "F"a>g f>c "Bb"ed df | "F"c<a "C7"g>f "F"f3 :|
B \
| "F"A>B c>A "Bb"B2 B<d | "F"c<A G>F "C7"G2 G>B \
| "F"A>B c>A "Bb"B>c d>B | "F"c<f "C7"A>G "F"F3 |]
B \
| "F"A>B c>A "Bb"B2 B<d | "F"c<A "G7"G>F "C7"G2 G>B \
| "F"A/B/c "F7"F/G/A "Bb"(3Bc^c "G7"(3dgf | "C7"(3edc (3BAG "F"F3 |]
